X:8094
T:Widow Brady
O:England
M:6/8
L:1/8
Q:1/4=120
K:D
V:1
B |:A FD DF A|A FA B2 d|A FD DF A|
f ed B2 d|A FD DF A|A FA B2 d|d ef gf e|
|1 f dB B2 d:|2 f dB B2 f|| |:a fd fe d|e cA Ae f|
g fe fe d|e cA Af g|a ba gf e|f ed ec A|
B cd ef g|1 f dd d2 f:|2 f dd d2 B||
a bc' d'3 |]


